X: 1
T: The Ballintore Fancy
R: reel
M: 4/4
L: 1/8
K: Gmaj
|:GB ~B2 GBdB|GBBG FGAF|GB ~B2 GBdg|1ecAG FGAF :|2ecAG FGAG||
|:BE~E2 BEGA|BE ~E2 A2GA|BE ~E2 cABG|1 AGFG A2GA :|2 AGFG AcBA||


Tune 1437	Setting 14816

